flaticon/constructions/paint-brush-2.svg

<svg xmlns="http://www.w3.org/2000/svg" width="32" height="32" viewBox="0 0 24 24">
    <path d="M 12 21.601562 C 12.878906 21.601562 13.601562 20.878906 13.601562 20 C 13.601562 19.121094 12.878906 18.398438 12 18.398438 C 11.121094 18.398438 10.398438 19.121094 10.398438 20 C 10.398438 20.878906 11.121094 21.601562 12 21.601562 Z M 12 19.199219 C 12.441406 19.199219 12.800781 19.558594 12.800781 20 C 12.800781 20.441406 12.441406 20.800781 12 20.800781 C 11.558594 20.800781 11.199219 20.441406 11.199219 20 C 11.199219 19.558594 11.558594 19.199219 12 19.199219 Z M 12 19.199219"/>
    <path d="M 17.601562 5.199219 L 17.601562 1.199219 C 17.601562 0.519531 17.078125 0 16.398438 0 L 7.601562 0 C 6.921875 0 6.398438 0.519531 6.398438 1.199219 L 6.398438 5.199219 C 6.160156 5.199219 6 5.359375 6 5.601562 L 6 9.199219 C 6 9.441406 6.160156 9.601562 6.398438 9.601562 L 6.398438 12.398438 C 6.398438 13.441406 6.839844 13.71875 7.640625 14.238281 L 7.761719 14.320312 C 8.441406 14.800781 8.558594 15.238281 8.398438 16.320312 L 8 19 C 7.761719 20.679688 8.480469 22.359375 9.839844 23.320312 C 10.480469 23.761719 11.199219 24 12 24 C 12.800781 24 13.519531 23.761719 14.121094 23.28125 C 15.480469 22.320312 16.238281 20.640625 15.960938 18.960938 L 15.558594 16.28125 C 15.398438 15.121094 15.398438 14.878906 16.199219 14.320312 L 16.359375 14.238281 C 17.160156 13.71875 17.601562 13.441406 17.601562 12.398438 L 17.601562 9.601562 C 17.839844 9.601562 18 9.441406 18 9.199219 L 18 5.601562 C 18 5.359375 17.839844 5.199219 17.601562 5.199219 Z M 6.800781 8.800781 L 6.800781 6 L 10.398438 6 L 10.398438 6.398438 C 10.398438 7.28125 11.121094 8 12 8 C 12.878906 8 13.601562 7.28125 13.601562 6.398438 L 13.601562 6 L 17.199219 6 L 17.199219 8.800781 Z M 16.800781 1.199219 L 16.800781 5.199219 L 13.601562 5.199219 L 13.601562 0.800781 L 16.398438 0.800781 C 16.640625 0.800781 16.800781 0.960938 16.800781 1.199219 Z M 12.800781 5.601562 L 12.800781 6.398438 C 12.800781 6.839844 12.441406 7.199219 12 7.199219 C 11.558594 7.199219 11.199219 6.839844 11.199219 6.398438 L 11.199219 2 C 11.199219 1.761719 11.039062 1.601562 10.800781 1.601562 C 10.558594 1.601562 10.398438 1.761719 10.398438 2 L 10.398438 3.199219 C 10.398438 3.640625 10.039062 4 9.601562 4 C 9.160156 4 8.800781 3.640625 8.800781 3.199219 L 8.800781 0.800781 L 12.800781 0.800781 Z M 7.199219 1.199219 C 7.199219 1 7.398438 0.800781 7.601562 0.800781 L 8 0.800781 L 8 3.199219 C 8 4.078125 8.71875 4.800781 9.601562 4.800781 C 9.878906 4.800781 10.160156 4.71875 10.398438 4.601562 L 10.398438 5.199219 L 7.199219 5.199219 Z M 16.839844 12.359375 C 16.839844 12.960938 16.71875 13.039062 15.960938 13.519531 L 15.800781 13.640625 C 14.601562 14.480469 14.640625 15.078125 14.839844 16.398438 L 15.238281 19.078125 C 15.441406 20.441406 14.839844 21.839844 13.71875 22.640625 C 12.71875 23.320312 11.320312 23.320312 10.320312 22.640625 C 9.160156 21.839844 8.601562 20.441406 8.800781 19.078125 L 9.199219 16.398438 C 9.398438 15.238281 9.320312 14.398438 8.238281 13.640625 L 8.078125 13.558594 C 7.53125 13.214844 7.316406 13.074219 7.238281 12.800781 L 8.398438 12.800781 C 8.640625 12.800781 8.800781 12.640625 8.800781 12.398438 C 8.800781 12.160156 8.640625 12 8.398438 12 L 7.199219 12 L 7.199219 11.199219 L 9.199219 11.199219 C 9.441406 11.199219 9.601562 11.039062 9.601562 10.800781 C 9.601562 10.558594 9.441406 10.398438 9.199219 10.398438 L 7.199219 10.398438 L 7.199219 9.601562 L 16.839844 9.601562 Z M 16.839844 12.359375"/>
</svg>

<svg xmlns="http://www.w3.org/2000/svg" width="32" height="32" viewBox="0 0 24 24">
    <path d="M12 21.602c.879 0 1.602-.723 1.602-1.602 0-.879-.723-1.602-1.602-1.602-.879 0-1.602.723-1.602 1.602 0 .879.723 1.602 1.602 1.602zm0-2.403a.802.802 0 0 1 0 1.602.802.802 0 0 1 0-1.602zm0 0"/>
    <path d="M17.602 5.2v-4c0-.68-.524-1.2-1.204-1.2H7.602c-.68 0-1.204.52-1.204 1.2v4C6.16 5.2 6 5.36 6 5.601v3.597c0 .242.16.403.398.403v2.796c0 1.043.442 1.32 1.243 1.84l.12.082c.68.48.798.918.637 2L8 19c-.238 1.68.48 3.36 1.84 4.32.64.442 1.36.68 2.16.68s1.52-.238 2.121-.719c1.36-.96 2.117-2.64 1.84-4.32l-.402-2.68c-.16-1.16-.16-1.402.64-1.96l.16-.083c.801-.52 1.243-.797 1.243-1.84V9.602c.238 0 .398-.16.398-.403V5.602c0-.243-.16-.403-.398-.403zM6.8 8.8V6h3.597v.398C10.398 7.281 11.121 8 12 8c.879 0 1.602-.719 1.602-1.602V6h3.597v2.8zm10-7.6v4h-3.2V.8h2.797c.243 0 .403.16.403.4zm-4 4.402v.796a.802.802 0 0 1-1.602 0V2c0-.238-.16-.398-.398-.398-.242 0-.403.16-.403.398v1.2c0 .44-.359.8-.796.8-.442 0-.801-.36-.801-.8V.8h4zM7.199 1.199c0-.199.2-.398.403-.398H8v2.398c0 .88.719 1.602 1.602 1.602.277 0 .558-.082.796-.2V5.2H7.2zm9.64 11.16c0 .602-.12.68-.878 1.16l-.16.122c-1.2.84-1.16 1.437-.961 2.757l.398 2.68a3.745 3.745 0 0 1-1.52 3.563c-1 .68-2.398.68-3.398 0-1.16-.801-1.718-2.2-1.52-3.563l.4-2.68c.198-1.16.12-2-.962-2.757l-.16-.082c-.547-.344-.762-.485-.84-.758h1.16c.243 0 .403-.16.403-.403 0-.238-.16-.398-.403-.398H7.2v-.8h2c.242 0 .403-.16.403-.4 0-.241-.16-.402-.403-.402h-2v-.796h9.64zm0 0"/>
</svg>
